public/images/logos/bonpoint.svg

<svg xmlns="http://www.w3.org/2000/svg" width="327" height="168" fill="none"><path fill="#000" d="M91.6 166.8h-2.06l-9.51-19.96h2.65l7.94 16.59 7.88-16.59h2.65L91.6 166.8ZM108.99 166.8v-19.99h2.35v19.99h-2.35ZM137.9 166.8l-13.01-16.24v16.24h-2.35v-19.96h2.35l13.01 16.46v-16.46h2.38v19.96h-2.38ZM158.78 149.2v17.61h-2.35V149.2h-7.29v-2.35h16.97v2.35h-7.33ZM190.02 166.8l-3.26-6.87h-9.62l-3.15 6.87h-2.62l9.51-19.96h2.4l9.35 19.96h-2.61Zm-7.97-17.09-3.74 7.91h7.4l-3.66-7.91ZM213.66 166.8c-1.2.35-2.43.51-3.69.51-6.12 0-11.06-4.14-11.06-10.45 0-6.25 5.02-10.42 11.06-10.42 3.55 0 6.01 1.26 8.5 3.71l-1.6 1.68c-2.11-1.95-3.98-3.05-6.95-3.05-4.7 0-8.68 3.23-8.68 8.1 0 4.94 4.01 8.07 8.74 8.07.8 0 1.63-.08 2.43-.24 1.74-.37 4.11-1.47 4.11-3.58v-2.81h-6.89v-2.35h9.24v5.32c0 2.92-2.7 4.77-5.21 5.51ZM227.81 166.8v-19.96h16.46v2.35h-14.08v6.09h7.4v2.35h-7.4v6.81h14.67v2.35h-17.05v.01ZM302.02 65.04c.96-.45 1.72-1 3.01-1.6 10.28-4.8 22.63 7.6 1.52 16.1-106.19 42.71-202.92 14.82-222.65 6.58-20.48-8.56-19.71-7.99-27.18-9.84-7.04-1.73-16.38-1.02-22.65.74-42.9 11.99-30.61 43.91 2.57 50.98 31.81 6.15 71.33-8.36 86.12-19.93l-.49-.58c-14.13 10.67-55.02 25.92-84.94 19.88-34.27-7.25-44.93-40.14.75-50.05 13.33-2.89 30.12 3.59 43.67 10.49 22.91 11.67 116.54 41.71 226.01-7.08 23.07-10.29 7.6-24.78-4.52-17.42l-1.74 1M74.01 44.18c0-6.61-2.97-11.41-8.15-11.41-3.84 0-4.32 1.54-6.71 1.54-.96 0-1.63-.58-1.63-1.63 0-1.05.86-1.82 2.11-1.82.87 0 1.63.39 2.87.39 9.78 0 14.58-8.25 14.58-17.06 0-4.7-1.34-7.86-4.51-9.4-10.93 7.58-16.39 21.67-23.01 33.17-9.11 15.82-23.2 29.53-37.48 29.53C4.69 67.49 0 64.52 0 60.1c0-2.59 1.15-4.69 3.93-4.69 2.11 0 3.35 1.34 3.35 3.16 0 1.73-1.34 3.16-1.34 4.13 0 2.2 2.68 3.64 6.42 3.64 14.19 0 21.96-12.56 31.16-29.53 6.71-12.37 15.82-24.93 27.71-32.7-5.85-2.59-11.51-2.97-16.97-2.97-25.69 0-47.45 17.26-47.45 32.89 0 4.51 2.97 7.77 8.43 7.77 5.18 0 16.4-5.85 24.06-17.93 6.71-10.54 6.81-16.39 7.48-16.39.39 0 .67.1.67.48 0 7.86-9.68 35.37-32.02 35.37-5.75 0-9.78-3.74-9.78-9.01C5.65 18.02 27.99 0 54.64 0c6.14 0 13.33.86 18.02 3.26C75.63 1.53 78.7 0 79.56 0c.19 0 .38.29.38.77 0 .58-5.08 2.11-5.85 2.97 4.89 2.68 8.73 7.19 8.73 13.04 0 6.9-7.19 13.23-15.34 15.15v.19c6.9 1.54 12.27 6.33 12.27 14.09 0 12.46-12.18 21.28-23.3 21.28-6.9 0-10.84-3.65-10.84-9.3 0-8.82 9.01-14.48 10.16-14.48.29 0 .48.19.48.48 0 .77-1.82.58-4.89 3.74-3.35 3.54-4.6 6.23-4.6 10.26 0 5.37 3.35 8.15 9.78 8.15 9.6-.02 17.47-12.77 17.47-22.16Z"/><path fill="#000" d="M105.54 41.4c-6.71 0-15.63 12.75-15.63 20.8 0 2.69 1.15 3.55 2.49 3.55 7.58 0 16.49-11.32 16.49-20.04.01-2.3-.95-4.31-3.35-4.31Zm-.19 17.44c.19.1.48.2 1.06.2 3.26 0 6.52-1.92 8.92-4.7 1.25-1.44 1.34-1.63 1.63-1.63.39 0 .48.19.48.48 0 .2-.19.58-2.4 2.88-2.4 2.49-5.75 4.12-9.49 4.12-.67 0-.96 0-1.24-.1-2.97 3.35-6.9 6.81-12.27 6.81-3.84 0-5.94-3.36-5.94-8.54 0-3.45.48-4.41.48-4.98 0-.39-.1-.58-.29-.58-.77 0-16.31 10.57-16.6 10.57-.29 0 .12-1.42 0-1.16-.39.9 17.28-11.88 19.86-14.4 4.93-4.81 11.41-7.57 15.72-7.57 3.65 0 5.75 2.78 5.75 6.61-.01 3.94-2.79 9.12-5.67 11.99Z"/><path fill="#000" d="M117.7 66.9c1.82-3.55 15.34-21.09 15.34-24.06 0-.96-.67-1.44-1.44-1.44-2.68 0-5.27 2.01-10.16 7.38-4.51 4.89-4.41 5.27-4.8 5.27-.29 0-.48-.19-.48-.58 0-.29 2.39-2.97 3.64-4.41 4.6-5.37 8.44-8.82 12.18-8.82 2.49 0 3.54 1.82 3.54 4.7 0 3.84-3.93 9.3-6.04 12.08l.19.19c3.74-3.55 14.77-16.97 19.66-16.97 2.39 0 3.45 2.49 3.45 4.51 0 3.26-1.92 6.04-3.55 8.25-4.31 5.84-6.42 9.3-6.42 10.83 0 .96.58 1.92 1.54 1.92 2.2 0 6.23-3.45 10.16-7.67 4.89-5.18 4.51-5.46 5.08-5.46.29 0 .39.29.39.48 0 .48-4.79 5.75-6.04 6.99-4.22 4.22-7.57 6.81-9.77 6.81-2.88 0-4.22-2.68-4.22-6.14 0-7.67 10.35-15.63 10.35-18.22 0-.67-.48-1.15-1.34-1.15-4.6 0-21.96 20.42-24.83 24.92l-6.43.59Z"/><path fill="#000" d="m181.3 30.8-15.68 27.18.19.2c3.54-4.22 14.48-17.93 20.61-17.93 2.49 0 3.54 2.3 3.54 4.99 0 6.04-10.25 14.19-10.25 19.17 0 .87.58 1.34 1.53 1.34 2.01 0 5.18-1.53 11.12-8.25 3.84-4.31 4.03-4.89 4.41-4.89.29 0 .48.29.48.48 0 .48-.19.38-2.97 3.65-6.52 7.76-10.55 10.16-13.32 10.16-2.97 0-4.13-2.49-4.13-6.13 0-7.58 10.26-14.19 10.26-18.12 0-.67-.58-1.25-1.25-1.25-3.65 0-17.73 11.7-31.73 36.24l-7.96 13.99-6.42.39 32.88-53.4-.19-.19c-4.99 5.84-12.84 15.72-13.23 15.72-.38 0-.57-.2-.57-.48 0-.48.56-.17 5.65-6.9 8.91-11.77 4.04-4.67 10.9-15.16l6.13-.81Z"/><path fill="#000" d="M217.29 41.4c-6.71 0-15.63 12.75-15.63 20.8 0 2.69 1.15 3.55 2.49 3.55 7.58 0 16.49-11.32 16.49-20.04.01-2.3-.95-4.31-3.35-4.31Zm-.19 17.44c.19.1.48.2 1.05.2 3.26 0 6.52-1.92 8.92-4.7 1.25-1.44 1.34-1.63 1.63-1.63.38 0 .48.19.48.48 0 .2-.18.58-2.4 2.88-2.39 2.49-5.75 4.12-9.49 4.12-.67 0-.96 0-1.25-.1-2.97 3.35-6.9 6.81-12.27 6.81-3.84 0-5.94-3.36-5.94-8.54 0-3.45.48-4.41.48-4.98 0-.39-.09-.58-.29-.58-.77 0-1.44 1.53-1.72 1.53-.29 0-.58-.19-.58-.48 0-.48 3.26-3.84 5.56-6.04 5.56-5.27 11.41-7.57 15.73-7.57 3.64 0 5.75 2.78 5.75 6.61 0 3.94-2.78 9.12-5.66 11.99Z"/><path fill="#000" d="M246.44 29.72c1.34 0 2.2 1.06 2.2 2.49 0 1.63-1.25 3.65-3.36 3.65-1.34 0-2.2-1.06-2.2-2.5.01-1.63 1.25-3.64 3.36-3.64Zm-1.27 10.53c-11.51 18.98-13.32 21.47-13.32 23.49 0 1.63.96 2.01 1.82 2.01 3.07 0 7.48-3.84 10.65-7.09 2.49-2.49 5.66-6.32 5.84-6.32.29 0 .58.09.58.48 0 .29-1.82 2.49-5.85 6.71-4.7 4.89-8.63 7.38-11.32 7.38-2.97 0-4.6-2.11-4.6-4.99 0-6.42 5.85-12.94 9.11-17.83l-.19-.2c-1.15 1.16-3.55 3.65-8.15 8.82-.96 1.15-1.05 1.25-1.34 1.25-.29 0-.38-.29-.38-.58 0-.19.38-.58 2.87-3.45 2.49-2.88 6.8-7.28 8.25-9.3l6.03-.38Z"/><path fill="#000" d="M250.72 66.9c1.82-3.55 15.35-21.09 15.35-24.06 0-.96-.68-1.44-1.44-1.44-2.68 0-5.27 2.01-10.16 7.38-4.51 4.89-4.41 5.27-4.8 5.27-.29 0-.48-.19-.48-.58 0-.29 2.4-2.97 3.65-4.41 4.6-5.37 8.44-8.82 12.17-8.82 2.49 0 3.55 1.82 3.55 4.7 0 3.84-3.93 9.3-6.04 12.08l.19.19c3.74-3.55 14.77-16.97 19.65-16.97 2.4 0 3.46 2.49 3.46 4.51 0 3.26-1.92 6.04-3.55 8.25-4.31 5.84-6.42 9.3-6.42 10.83 0 .96.58 1.92 1.54 1.92 2.2 0 6.23-3.45 10.16-7.67 4.89-5.18 4.51-5.46 5.08-5.46.3 0 .39.29.39.48 0 .48-4.79 5.75-6.04 6.99-4.22 4.22-7.57 6.81-9.78 6.81-2.87 0-4.22-2.68-4.22-6.14 0-7.67 10.35-15.63 10.35-18.22 0-.67-.48-1.15-1.34-1.15-4.6 0-21.96 20.42-24.83 24.92l-6.44.59Z"/><path fill="#000" d="M302.19 64.98c-2.23 1.34-3.67 1.92-5.08 1.92-3.26-.1-4.51-2.49-4.51-4.7 0-5.46 3.26-10.16 8.92-18.22l-.2-.19c-1.82 2.2-3.25 3.74-5.85 6.71-.86.96-3.45 4.13-3.73 4.13-.28 0-.48-.1-.48-.39 0-.39.39-.77 4.12-4.99 2.88-3.16 8.73-10.06 13.14-16.49h-3.46c-.38 0-.48-.29-.48-.58s.29-.58.39-.58H309l5.65-9.2 5.94-.39-6.23 9.59h11.22c.2 0 .48.19.48.58 0 .29-.1.58-.48.58h-11.87c-2.97 5.27-18.22 27.13-18.22 31.54 0 .96.58 1.44 1.82 1.44 1.29 0 2.67-.5 4.19-1.44"/></svg>

<svg width="327" height="168" viewBox="0 0 327 168" fill="none" xmlns="http://www.w3.org/2000/svg">
<path d="M91.6 166.8H89.54L80.03 146.84H82.68L90.62 163.43L98.5 146.84H101.15L91.6 166.8Z" fill="black"/>
<path d="M108.99 166.8V146.81H111.34V166.8H108.99Z" fill="black"/>
<path d="M137.9 166.8L124.89 150.56V166.8H122.54V146.84H124.89L137.9 163.3V146.84H140.28V166.8H137.9Z" fill="black"/>
<path d="M158.78 149.2V166.81H156.43V149.2H149.14V146.85H166.11V149.2H158.78Z" fill="black"/>
<path d="M190.02 166.8L186.76 159.93H177.14L173.99 166.8H171.37L180.88 146.84H183.28L192.63 166.8H190.02ZM182.05 149.71L178.31 157.62H185.71L182.05 149.71Z" fill="black"/>
<path d="M213.66 166.8C212.46 167.15 211.23 167.31 209.97 167.31C203.85 167.31 198.91 163.17 198.91 156.86C198.91 150.61 203.93 146.44 209.97 146.44C213.52 146.44 215.98 147.7 218.47 150.15L216.87 151.83C214.76 149.88 212.89 148.78 209.92 148.78C205.22 148.78 201.24 152.01 201.24 156.88C201.24 161.82 205.25 164.95 209.98 164.95C210.78 164.95 211.61 164.87 212.41 164.71C214.15 164.34 216.52 163.24 216.52 161.13V158.32H209.63V155.97H218.87V161.29C218.87 164.21 216.17 166.06 213.66 166.8Z" fill="black"/>
<path d="M227.81 166.8V146.84H244.27V149.19H230.19V155.28H237.59V157.63H230.19V164.44H244.86V166.79H227.81V166.8Z" fill="black"/>
<path d="M302.02 65.04C302.98 64.59 303.74 64.04 305.03 63.44C315.31 58.64 327.66 71.04 306.55 79.54C200.36 122.25 103.63 94.36 83.9 86.12C63.42 77.56 64.19 78.13 56.72 76.28C49.68 74.55 40.34 75.26 34.07 77.02C-8.82999 89.01 3.46 120.93 36.64 128C68.45 134.15 107.97 119.64 122.76 108.07L122.27 107.49C108.14 118.16 67.25 133.41 37.33 127.37C3.06 120.12 -7.6 87.23 38.08 77.32C51.41 74.43 68.2 80.91 81.75 87.81C104.66 99.48 198.29 129.52 307.76 80.73C330.83 70.44 315.36 55.95 303.24 63.31L301.5 64.31" fill="black"/>
<path d="M74.01 44.18C74.01 37.57 71.04 32.77 65.86 32.77C62.02 32.77 61.54 34.31 59.15 34.31C58.19 34.31 57.52 33.73 57.52 32.68C57.52 31.63 58.38 30.86 59.63 30.86C60.5 30.86 61.26 31.25 62.5 31.25C72.28 31.25 77.08 23 77.08 14.19C77.08 9.49 75.74 6.32998 72.57 4.78998C61.64 12.37 56.18 26.46 49.56 37.96C40.45 53.78 26.36 67.49 12.08 67.49C4.69 67.49 0 64.52 0 60.1C0 57.51 1.15001 55.41 3.93001 55.41C6.04001 55.41 7.28 56.75 7.28 58.57C7.28 60.3 5.94 61.73 5.94 62.7C5.94 64.9 8.62 66.34 12.36 66.34C26.55 66.34 34.32 53.78 43.52 36.81C50.23 24.44 59.34 11.88 71.23 4.10999C65.38 1.51999 59.72 1.13998 54.26 1.13998C28.57 1.13998 6.81 18.4 6.81 34.03C6.81 38.54 9.78001 41.8 15.24 41.8C20.42 41.8 31.64 35.95 39.3 23.87C46.01 13.33 46.11 7.47998 46.78 7.47998C47.17 7.47998 47.45 7.57999 47.45 7.95999C47.45 15.82 37.77 43.33 15.43 43.33C9.68001 43.33 5.64999 39.59 5.64999 34.32C5.64999 18.02 27.99 0 54.64 0C60.78 0 67.97 0.859979 72.66 3.25998C75.63 1.52998 78.7 0 79.56 0C79.75 0 79.94 0.289989 79.94 0.769989C79.94 1.34999 74.86 2.87999 74.09 3.73999C78.98 6.41999 82.82 10.93 82.82 16.78C82.82 23.68 75.63 30.01 67.48 31.93V32.12C74.38 33.66 79.75 38.45 79.75 46.21C79.75 58.67 67.57 67.49 56.45 67.49C49.55 67.49 45.61 63.84 45.61 58.19C45.61 49.37 54.62 43.71 55.77 43.71C56.06 43.71 56.25 43.9 56.25 44.19C56.25 44.96 54.43 44.77 51.36 47.93C48.01 51.47 46.76 54.16 46.76 58.19C46.76 63.56 50.11 66.34 56.54 66.34C66.14 66.32 74.01 53.57 74.01 44.18Z" fill="black"/>
<path d="M105.54 41.4C98.83 41.4 89.91 54.15 89.91 62.2C89.91 64.89 91.06 65.75 92.4 65.75C99.98 65.75 108.89 54.43 108.89 45.71C108.9 43.41 107.94 41.4 105.54 41.4ZM105.35 58.84C105.54 58.94 105.83 59.04 106.41 59.04C109.67 59.04 112.93 57.12 115.33 54.34C116.58 52.9 116.67 52.71 116.96 52.71C117.35 52.71 117.44 52.9 117.44 53.19C117.44 53.39 117.25 53.77 115.04 56.07C112.64 58.56 109.29 60.19 105.55 60.19C104.88 60.19 104.59 60.19 104.31 60.09C101.34 63.44 97.41 66.9 92.04 66.9C88.2 66.9 86.1 63.54 86.1 58.36C86.1 54.91 86.58 53.95 86.58 53.38C86.58 52.99 86.48 52.8 86.29 52.8C85.52 52.8 69.98 63.37 69.69 63.37C69.4 63.37 69.81 61.95 69.69 62.21C69.3 63.11 86.97 50.33 89.55 47.81C94.48 43 100.96 40.24 105.27 40.24C108.92 40.24 111.02 43.02 111.02 46.85C111.01 50.79 108.23 55.97 105.35 58.84Z" fill="black"/>
<path d="M117.7 66.9C119.52 63.35 133.04 45.81 133.04 42.84C133.04 41.88 132.37 41.4 131.6 41.4C128.92 41.4 126.33 43.41 121.44 48.78C116.93 53.67 117.03 54.05 116.64 54.05C116.35 54.05 116.16 53.86 116.16 53.47C116.16 53.18 118.55 50.5 119.8 49.06C124.4 43.69 128.24 40.24 131.98 40.24C134.47 40.24 135.52 42.06 135.52 44.94C135.52 48.78 131.59 54.24 129.48 57.02L129.67 57.21C133.41 53.66 144.44 40.24 149.33 40.24C151.72 40.24 152.78 42.73 152.78 44.75C152.78 48.01 150.86 50.79 149.23 53C144.92 58.84 142.81 62.3 142.81 63.83C142.81 64.79 143.39 65.75 144.35 65.75C146.55 65.75 150.58 62.3 154.51 58.08C159.4 52.9 159.02 52.62 159.59 52.62C159.88 52.62 159.98 52.91 159.98 53.1C159.98 53.58 155.19 58.85 153.94 60.09C149.72 64.31 146.37 66.9 144.17 66.9C141.29 66.9 139.95 64.22 139.95 60.76C139.95 53.09 150.3 45.13 150.3 42.54C150.3 41.87 149.82 41.39 148.96 41.39C144.36 41.39 127 61.81 124.13 66.31L117.7 66.9Z" fill="black"/>
<path d="M181.3 30.8L165.62 57.98L165.81 58.18C169.35 53.96 180.29 40.25 186.42 40.25C188.91 40.25 189.96 42.55 189.96 45.24C189.96 51.28 179.71 59.43 179.71 64.41C179.71 65.28 180.29 65.75 181.24 65.75C183.25 65.75 186.42 64.22 192.36 57.5C196.2 53.19 196.39 52.61 196.77 52.61C197.06 52.61 197.25 52.9 197.25 53.09C197.25 53.57 197.06 53.47 194.28 56.74C187.76 64.5 183.73 66.9 180.96 66.9C177.99 66.9 176.83 64.41 176.83 60.77C176.83 53.19 187.09 46.58 187.09 42.65C187.09 41.98 186.51 41.4 185.84 41.4C182.19 41.4 168.11 53.1 154.11 77.64L146.15 91.63L139.73 92.02L172.61 38.62L172.42 38.43C167.43 44.27 159.58 54.15 159.19 54.15C158.81 54.15 158.62 53.95 158.62 53.67C158.62 53.19 159.18 53.5 164.27 46.77C173.18 35 168.31 42.1 175.17 31.61L181.3 30.8Z" fill="black"/>
<path d="M217.29 41.4C210.58 41.4 201.66 54.15 201.66 62.2C201.66 64.89 202.81 65.75 204.15 65.75C211.73 65.75 220.64 54.43 220.64 45.71C220.65 43.41 219.69 41.4 217.29 41.4ZM217.1 58.84C217.29 58.94 217.58 59.04 218.15 59.04C221.41 59.04 224.67 57.12 227.07 54.34C228.32 52.9 228.41 52.71 228.7 52.71C229.08 52.71 229.18 52.9 229.18 53.19C229.18 53.39 229 53.77 226.78 56.07C224.39 58.56 221.03 60.19 217.29 60.19C216.62 60.19 216.33 60.19 216.04 60.09C213.07 63.44 209.14 66.9 203.77 66.9C199.93 66.9 197.83 63.54 197.83 58.36C197.83 54.91 198.31 53.95 198.31 53.38C198.31 52.99 198.22 52.8 198.02 52.8C197.25 52.8 196.58 54.33 196.3 54.33C196.01 54.33 195.72 54.14 195.72 53.85C195.72 53.37 198.98 50.01 201.28 47.81C206.84 42.54 212.69 40.24 217.01 40.24C220.65 40.24 222.76 43.02 222.76 46.85C222.76 50.79 219.98 55.97 217.1 58.84Z" fill="black"/>
<path d="M246.44 29.72C247.78 29.72 248.64 30.78 248.64 32.21C248.64 33.84 247.39 35.86 245.28 35.86C243.94 35.86 243.08 34.8 243.08 33.36C243.09 31.73 244.33 29.72 246.44 29.72ZM245.17 40.25C233.66 59.23 231.85 61.72 231.85 63.74C231.85 65.37 232.81 65.75 233.67 65.75C236.74 65.75 241.15 61.91 244.32 58.66C246.81 56.17 249.98 52.34 250.16 52.34C250.45 52.34 250.74 52.43 250.74 52.82C250.74 53.11 248.92 55.31 244.89 59.53C240.19 64.42 236.26 66.91 233.57 66.91C230.6 66.91 228.97 64.8 228.97 61.92C228.97 55.5 234.82 48.98 238.08 44.09L237.89 43.89C236.74 45.05 234.34 47.54 229.74 52.71C228.78 53.86 228.69 53.96 228.4 53.96C228.11 53.96 228.02 53.67 228.02 53.38C228.02 53.19 228.4 52.8 230.89 49.93C233.38 47.05 237.69 42.65 239.14 40.63L245.17 40.25Z" fill="black"/>
<path d="M250.72 66.9C252.54 63.35 266.07 45.81 266.07 42.84C266.07 41.88 265.39 41.4 264.63 41.4C261.95 41.4 259.36 43.41 254.47 48.78C249.96 53.67 250.06 54.05 249.67 54.05C249.38 54.05 249.19 53.86 249.19 53.47C249.19 53.18 251.59 50.5 252.84 49.06C257.44 43.69 261.28 40.24 265.01 40.24C267.5 40.24 268.56 42.06 268.56 44.94C268.56 48.78 264.63 54.24 262.52 57.02L262.71 57.21C266.45 53.66 277.48 40.24 282.36 40.24C284.76 40.24 285.82 42.73 285.82 44.75C285.82 48.01 283.9 50.79 282.27 53C277.96 58.84 275.85 62.3 275.85 63.83C275.85 64.79 276.43 65.75 277.39 65.75C279.59 65.75 283.62 62.3 287.55 58.08C292.44 52.9 292.06 52.62 292.63 52.62C292.93 52.62 293.02 52.91 293.02 53.1C293.02 53.58 288.23 58.85 286.98 60.09C282.76 64.31 279.41 66.9 277.2 66.9C274.33 66.9 272.98 64.22 272.98 60.76C272.98 53.09 283.33 45.13 283.33 42.54C283.33 41.87 282.85 41.39 281.99 41.39C277.39 41.39 260.03 61.81 257.16 66.31L250.72 66.9Z" fill="black"/>
<path d="M302.19 64.98C299.96 66.32 298.52 66.9 297.11 66.9C293.85 66.8 292.6 64.41 292.6 62.2C292.6 56.74 295.86 52.04 301.52 43.98L301.32 43.79C299.5 45.99 298.07 47.53 295.47 50.5C294.61 51.46 292.02 54.63 291.74 54.63C291.46 54.63 291.26 54.53 291.26 54.24C291.26 53.85 291.65 53.47 295.38 49.25C298.26 46.09 304.11 39.19 308.52 32.76H305.06C304.68 32.76 304.58 32.47 304.58 32.18C304.58 31.89 304.87 31.6 304.97 31.6H309L314.65 22.4L320.59 22.01L314.36 31.6H325.58C325.78 31.6 326.06 31.79 326.06 32.18C326.06 32.47 325.96 32.76 325.58 32.76H313.71C310.74 38.03 295.49 59.89 295.49 64.3C295.49 65.26 296.07 65.74 297.31 65.74C298.6 65.74 299.98 65.24 301.5 64.3" fill="black"/>
</svg>
